X: 5522
T: Burning Brakes, The
R: jig
M: 6/8
K: Gmajor
|:GBd gfg|dBg dBG|cBc EFG|ABG FED|
GBd gfg|dBg dBG|cBc DFA|1 AGF G2D:|2 AGF G2A||
|:B2G GBd|gfg dBG|cBc EFG|ABG FED|
B/c/dB GBd|gfa gdB|cBc DFA|1 AGF G2A:|2 AGF GBd||
g2d dBd|GBd gfg|a2e e^ce|A^ce agf|
g2d dBd|GBd gdB|ced cAF|AGF GBd|
g2d dBd|GBd gfg|a2e e^ce|A^ce agf|
gbg f/g/af|gdB GBd|cBc DFA|AGF G2D||

